svgs/sharp-thin/arrow-down-to-dotted-line.svg

<svg xmlns="http://www.w3.org/2000/svg" viewBox="0 0 448 512"><!--! Font Awesome Pro 6.6.0 by @fontawesome - https://fontawesome.com License - https://fontawesome.com/license (Commercial License) Copyright 2024 Fonticons, Inc. --><path d="M229.7 349.7l-5.7 5.7-5.7-5.7-136-136L76.7 208 88 196.7l5.7 5.7L216 324.7 216 200l0-160 0-8 16 0 0 8 0 160 0 124.7L354.3 202.3l5.7-5.7L371.3 208l-5.7 5.7-136 136zM16 432l32 0 0 32-32 0 0-32zm128 0l0 32-32 0 0-32 32 0zm96 32l-32 0 0-32 32 0 0 32zm96-32l0 32-32 0 0-32 32 0zm64 0l32 0 0 32-32 0 0-32z"/></svg>

<svg xmlns="http://www.w3.org/2000/svg" viewBox="0 0 448 512"><!--! Font Awesome Pro 6.5.2 by @fontawesome - https://fontawesome.com License - https://fontawesome.com/license (Commercial License) Copyright 2024 Fonticons, Inc. --><path d="M229.7 349.7l-5.7 5.7-5.7-5.7-136-136L76.7 208 88 196.7l5.7 5.7L216 324.7V200 40 32h16v8V200 324.7L354.3 202.3l5.7-5.7L371.3 208l-5.7 5.7-136 136zM16 432H48v32H16V432zm128 0v32H112V432h32zm96 32H208V432h32v32zm96-32v32H304V432h32zm64 0h32v32H400V432z"/></svg>
